X:1
T:The Jolly Soldier
M:4/4
L:1/8
K:C
 E| GG GG c2 GE| GG GE F3 E| FF GA G2 EE|F-F DB, C3| E| GG GG c2 GE|\
 GG GE F2 EE| FF GA GG EE| FF DB, C2| G3/2 G/2| G B- B3 AG F| F E- E4 G3/2 G/2|\
 G B- B3 AG B,| C3- C2||
